app/assets/images/double-arrow-right.svg

<?xml version="1.0" encoding="UTF-8"?>
<svg enable-background="new 0 0 120.64 122.88" version="1.1" viewBox="0 0 120.64 122.88" xml:space="preserve" xmlns="http://www.w3.org/2000/svg"><g fill="#354f52"><path d="m54.03 108.91c-1.55 1.63-2.31 3.74-2.28 5.85s0.84 4.2 2.44 5.79l0.12 0.12c1.58 1.5 3.6 2.23 5.61 2.2s4.01-0.82 5.55-2.37c17.66-17.66 35.13-35.61 52.68-53.4 0.07-0.05 0.13-0.1 0.19-0.16 1.55-1.63 2.31-3.76 2.28-5.87s-0.85-4.21-2.45-5.8l-0.27-0.26c-17.47-17.54-34.92-35.14-52.44-52.65-1.53-1.54-3.53-2.33-5.54-2.36s-4.03 0.7-5.61 2.21l-0.15 0.15c-1.57 1.58-2.38 3.66-2.41 5.76s0.73 4.22 2.28 5.85l47.22 47.27-47.22 47.67zm-51.77-2c-1.54 1.62-2.29 3.73-2.26 5.83 0.03 2.11 0.84 4.2 2.44 5.79l0.12 0.12c1.57 1.5 3.6 2.23 5.61 2.21 2.01-0.03 4.02-0.82 5.55-2.37 17.29-17.29 35.15-34.29 52.67-51.37 0.07-0.05 0.14-0.11 0.21-0.17 1.55-1.63 2.31-3.76 2.28-5.87s-0.85-4.21-2.45-5.8c-17.49-16.95-35.07-33.84-52.6-50.77l-0.12-0.13c-1.53-1.54-3.53-2.32-5.54-2.35s-4.03 0.7-5.61 2.2l-0.15 0.15c-1.57 1.58-2.38 3.67-2.41 5.76-0.03 2.1 0.73 4.22 2.28 5.85l47.18 45.24-47.2 45.68z" fill="#354f52"/></g></svg>

<?xml version="1.0" encoding="utf-8"?><svg version="1.1" id="Layer_1" xmlns="http://www.w3.org/2000/svg" xmlns:xlink="http://www.w3.org/1999/xlink" x="0px" y="0px" viewBox="0 0 120.64 122.88" style="enable-background:new 0 0 120.64 122.88" xml:space="preserve"><g><path d="M54.03,108.91c-1.55,1.63-2.31,3.74-2.28,5.85c0.03,2.11,0.84,4.2,2.44,5.79l0.12,0.12c1.58,1.5,3.6,2.23,5.61,2.2 c2.01-0.03,4.01-0.82,5.55-2.37c17.66-17.66,35.13-35.61,52.68-53.4c0.07-0.05,0.13-0.1,0.19-0.16c1.55-1.63,2.31-3.76,2.28-5.87 c-0.03-2.11-0.85-4.21-2.45-5.8l-0.27-0.26C100.43,37.47,82.98,19.87,65.46,2.36C63.93,0.82,61.93,0.03,59.92,0 c-2.01-0.03-4.03,0.7-5.61,2.21l-0.15,0.15c-1.57,1.58-2.38,3.66-2.41,5.76c-0.03,2.1,0.73,4.22,2.28,5.85l47.22,47.27 L54.03,108.91L54.03,108.91z M2.26,106.91c-1.54,1.62-2.29,3.73-2.26,5.83c0.03,2.11,0.84,4.2,2.44,5.79l0.12,0.12 c1.57,1.5,3.6,2.23,5.61,2.21c2.01-0.03,4.02-0.82,5.55-2.37C31.01,101.2,48.87,84.2,66.39,67.12c0.07-0.05,0.14-0.11,0.21-0.17 c1.55-1.63,2.31-3.76,2.28-5.87c-0.03-2.11-0.85-4.21-2.45-5.8C48.94,38.33,31.36,21.44,13.83,4.51l-0.12-0.13 c-1.53-1.54-3.53-2.32-5.54-2.35C6.16,2,4.14,2.73,2.56,4.23L2.41,4.38C0.84,5.96,0.03,8.05,0,10.14c-0.03,2.1,0.73,4.22,2.28,5.85 l47.18,45.24L2.26,106.91L2.26,106.91z"/></g></svg>
